X:194
T:There was twa Wives
S:Digital Tradition, twawives
N:Tune: Tak Your Auld Cloak About You
O:Scots
Z:dt:twawives
M:3/4
L:1/8
Q:1/4=100
W:There was twa wives, and twa witty wives,
W:As e'er play'd houghmagandie,
W:And they coost oot, upon a time,
W:Out o'er a drink o brandy;
W:Up Maggie rose, and forth she goes,
W:An she leaves auld Mary flytin,
W:And she farted by the byre-en'
W:For she was gaun a shiten.
W:
W:She farted by the byre-en',
W:She farted by the stable;
W:And thick and nimble were her steps
W:As fast as she was able:
W:Till at yon dyke-back the hurly brak,
W:But raxin for some dockins,
W:The beans and pease cam down her thighs,
W:And she cackit a' her stockins.
K:Bb
G|B3/2c/ B2 zd/d/|c3/2B/ A2 zA|B3/2A/ G2 zA|^F3/2-=E/ D2 zA|
B3/2c/ B3d|c3/2B/ A3d|B3/2A/ G3A|^F3/2-G/ D3A|
B3/2F/ F2 zE|D3/2F/ F2 zF/F/|D3/2G/ G2 zA|B3/2-c/ d2 zc|
B3/2B/ B3B|cd f2 zf|g/-f/-e/-d/ e2 d3/2c/|B3/2-A/ G3||
